X:1
T:I lift my heart to thee - Mundy
T:#
%%score { 1 | 2 } 3 4
L:1/8
Q:1/4=108
M:4/2
K:C
V:1 treble nm="Soprano I" snm="S"
V:2 treble 
V:3 treble nm="Alto" snm="A"
V:4 treble-8 nm="Tenor" snm="T"
V:1
"^I lift my heart to thee""^Psalm 25 v1 (metrical)\nThomas Sternhold" c4 | c6 B2 c2 A2 G4- | %2
w: I|lift my heart to thee,|
 G4 z4 z4 z4 | d4 e6 d2 e2"^John Mundy\n(c. 1555-1630)" f2 |[M:4/2] g8 g4 f4 | f4 e8 z4 | %6
w: |I lift my heart to|thee, my heart|to thee,|
 z4 z4 z2 c2 g4 | e2 f4 (e2 d4) d4- | d4 z4 z4 z4 | G4 c2 e2 d2 f2 e2 d2 | (B2 c2) c4 c4 B4 | %11
w: My God|and guide most * just:||Now suf- fer me to take no|* * shame, to take|
 A4 G4 z4 f2 e2- | e2 d4 c4 B2 c4 | G4 c6 A2 c4 | d4 e8 z4 | z4 z4 d4 g4- | g2 c2 f4 d4 e4 | %17
w: no shame, For in|* thee do I trust.|Let not my foes|re- joice,|Nor make|* a scorn of me,|
 c4 B4 A4 ^G4 | e4 d4 c2 B2 A2 (G2 | A4) B4 z2 d2 d4 | G2 d4 B2 d2 e2 d4 | d4 e4 e4 e4 | (d2 e2- | %23
w: nor make a scorn|of me, make a scorn of|* me: And let|them not be o- ver- thrown,|and let them not|be *|
 e2 f2) e2 d2 z2 g2 g4 | c2 g4 a2 g2 f2 e4 | d4 f6 e2 c2 d2 | e4 A4 c4 A4 | _B6 A2 F4 D2 A2- | %28
w: * o- ver- thrown, and let|them not be o- ver- thrown,|That put their trust in|thee, that put their|trust in thee, that put|
 A2 (G2 F2) E2 G8 | E16 |] %30
w: * their * trust in|thee.|
V:2
 c4 | e6 d2 e2 f2 g4 | G4 G6 A2 B4- | B4 (c6 B2) c4 |[M:4/2] c4 B3 c (d2 c2 A2) (c2- | %5
w: I|lift my heart to thee,|I lift my heart|* to * thee,|I lift my heart * * to|
 c2 B2) c4 c4 g4 | e2 f4 e2 c4 B4 | c8 A4 B4- | B4 z4 z4 z4 | z4 z4 z4 G4 | d2 f2 e2 g2 f2 e2 d4 | %11
w: * * thee, my God|and guide most just, and|guide most just:||Now|suf- fer me to take no shame,|
 f2 e4 d2 c2 B2 c4 | B4 A2 G2 F2 D2 E4- | E4 G4 A6 G2 | A2 B2 c4 G4 c4- | c2 A2 c4 d4 e4 | %16
w: For in thee do I trust,|for in thee do I trust.|* Let not my|foes re- joice, let not|* my foes re- joice,|
 e4 a6 f2 g4 | e4 d2 (e2 c4) B4 | (c4 B2) A4 (G2 ^F2) G2- | G2 ^F2 G4 B4 B4- | %20
w: Nor make a scorn,|a scorn of * me,|nor * make a * scorn|* of me: And let|
 B2 B2 A2 G2 B2 (c2 B2 A2) | B4 c2 g2 g4 c2 g2- | g2 e2 | g2 a2 g2 f2 e2 d2 e2 c2- | %24
w: * them not be o- ver\- * *|* thrown, and let them not|* be|o- ver- thrown, and let them not be|
 (c2 B2) c6 B2 c2 c2 | B4 d4 c4 z4 | c4 f6 e2 c2 d2 | e4 d8 d4- | d2 c2 c8 B4 | c16 |] %30
w: * * o- ver- thrown, be|o- ver- thrown,|That put their trust in|thee, that put|* their trust in|thee.|
V:3
 z4 | z4 z4 z4 C4 | E6 D2 E2 ^F2 G4- | G4 G4 G6 F2 |[M:4/2] E4 D6 E2 F2 G2 | A2 F2 G6 A2 B2 E2 | %6
w: |I|lift my heart to thee,|* I lift my|* heart, I lift my|heart to thee, My God and|
 G2 (A2 G4) C4 D2 G2- | G2 A4 G4 ^F2 G4 | D4 G2 B2 A2 c2 B2 A2 | B4 E4 G2 c2 B4 | %10
w: guide most * just, my God|* and guide most just:|Now suf- fer me to take no|shame, now suf- fer me,|
 G2 A2 G2 E2 A2 G2 G4 | C6 D2 E2 G2 C4 | G4 F2 (E2 D4) C4- | C4 C4 F6 E2 | F2 G2 C8 G4 | %15
w: suf- fer me to take no shame,|For in thee do I|trust, do I * trust.|* Let not my|foes re- joice, let|
 A6 G2 A2 B2 c4- | c8 A4 B4 | G4 G4 E4 E4 | G4 F4 D4 D4 | D4 D8 G4 | G4 ^F2 D4 G2 G2 F2 | %21
w: not my foes re- joice,|* Nor make|a scorn of me,|nor make a scorn|of me: And|let them not me o- ver-|
 G4 G4 C4 G2 c2 | B2 c2- | c2 c2 c2 A2 c2 G2 G2 C2 | E2 (D2 E2 F2) D4 G4- | G4 A4 A8 | %26
w: thrown, and let them not|be o\-|* ver- thrown, and let them not be|o- ver\- * * thrown, That|* put their|
 G4 F4 C4 C4 | G6 F2 D2 E2 F4- | F2 E2 D2 C2 D4 D4 | C16 |] %30
w: trust in thee, that|put their trust in thee,|* that put their trust in|thee.|
V:4
 z4 | z4 z4 z4 c4 | c6 B2 c2 A2 G4- | G4 C4 E6 D2 |[M:4/2][K:treble-8] E2 F2 G3 A B2 c2 (d2 e2 | %5
w: |I|lift my heart to thee,|* I lift my|heart to thee, I lift my heart *|
 f2) d2 c8 G2 c2- | c2 A2 B2 (c2 A4) G4 | c2 F4 (C2 D4) G4- | G4 G4 c2 e2 d2 f2 | %9
w: * to thee, My God|* and guide most * just,|and guide most * just:|* Now suf- fer me to|
 e2 d2 c4 B2 A2 G4- | G2 F2 c4 (F2 C2) G4 | A4 c2 B2 A2 G2 A4 | G4 D2 E2 F2 G2 C4- | C4 z4 z4 z4 | %14
w: take no shame, suf- fer me|* to take no * shame,|For in thee do I trust,|for in thee do I trust.||
 z4 z4 z4 C4 | F6 E2 F2 G2 C4 | c4 F4 F4 E4- | E2 F2 G2 (E2 A4) E4 | C4 D8 D4- | D4 G8 z2 G2 | %20
w: Let|not my foes re- joice,|re- joice, Nor make|* a scorn of * me,|a scorn of|* me, And|
 G4 D2 G4 C2 G2 d2- | (d2 G2) c4 z2 c2 c4 | G2 c2- | c2 F2 c2 d2 c2 B2 c4- | c2 G2 c2 F2 G4 C4 | %25
w: let them not be o- ver\-|* * thrown, and let|them not|* be o- ver- thrown, and let|* them not be o- ver-|
 G4 D4 F2 G2 A2 B2 | c4 (F4 A8) | G6 A2 _B6 A2 | F2 (G2 A4 G8) | C16 |] %30
w: thrown, That put their trust in|thee, in *|thee, that put their|trust in * *|thee.|

